X: 106
M:6/8
L:1/8
K:Gm
|: Acf A>GF| A c2 f2 A| BGB d>cB| fga b3| bbB d>=e^f| g2 d B>AG AcG F>=ED |A3 G3:|

